app/assets/images/icon.svg

<?xml version="1.0" encoding="UTF-8" standalone="no"?>
<svg width="51px" height="50px" viewBox="0 0 51 50" version="1.1" xmlns="http://www.w3.org/2000/svg" xmlns:xlink="http://www.w3.org/1999/xlink" xmlns:sketch="http://www.bohemiancoding.com/sketch/ns">
    <!-- Generator: Sketch 3.2.2 (9983) - http://www.bohemiancoding.com/sketch -->
    <title>LOGO</title>
    <desc>Created with Sketch.</desc>
    <defs></defs>
    <g id="Page-1" stroke="none" stroke-width="1" fill="none" fill-rule="evenodd" sketch:type="MSPage">
        <path d="M40.6286294,50 L1.33791175,50 C0.599305074,50 -3.55271368e-15,49.4127415 -3.55271368e-15,48.6883218 L-3.55271368e-15,1.31167814 C-3.55271368e-15,0.587553951 0.599003489,0 1.33791175,0 L49.6620882,0 C50.4006947,0 51,0.587258324 51,1.31167814 L51,21.9042139 C50.8062207,21.3165236 48.5365908,14.5928266 45.0294378,11.1781109 C41.3601037,7.60548893 34.7067741,4.68220542 35.6961594,7.03183828 C36.6855447,9.38147114 36.6855444,15.5019387 36.6855444,15.5019387 L26.7235855,19.3016174 L25.2293743,24.8282192 L13.0374269,28.0426393 C13.0374269,28.0426393 13.9062472,34.2611993 17.4106387,35.3480328 C19.6584502,36.0451572 34.3922408,37.6705283 34.3922408,37.6705283 L31.5951703,50 L40.6286294,50 L40.6286294,50 Z" id="LOGO" fill="#A873D1" sketch:type="MSShapeGroup"></path>
    </g>
</svg>

<?xml version="1.0" encoding="utf-8"?>
<!-- Generator: Adobe Illustrator 16.0.4, SVG Export Plug-In . SVG Version: 6.00 Build 0)  -->
<!DOCTYPE svg PUBLIC "-//W3C//DTD SVG 1.1//EN" "http://www.w3.org/Graphics/SVG/1.1/DTD/svg11.dtd">
<svg version="1.1" id="Layer_1" xmlns:sketch="http://www.bohemiancoding.com/sketch/ns"
	 xmlns="http://www.w3.org/2000/svg" xmlns:xlink="http://www.w3.org/1999/xlink" x="0px" y="0px" width="51px" height="50px"
	 viewBox="0 0 51 50" enable-background="new 0 0 51 50" xml:space="preserve">
<title>LOGO</title>
<desc>Created with Sketch.</desc>
<g id="Page-1" sketch:type="MSPage">
	<path id="LOGO" sketch:type="MSShapeGroup" fill="#E53221" d="M40.629,50H1.338C0.599,50,0,49.412,0,48.688V1.312
		C0,0.587,0.599,0,1.338,0h48.324C50.4,0,51,0.587,51,1.312v20.593c-0.193-0.588-2.463-7.312-5.971-10.726
		c-3.67-3.573-10.322-6.496-9.333-4.146s0.989,8.47,0.989,8.47l-9.962,3.8l-1.494,5.526l-12.192,3.215c0,0,0.869,6.219,4.373,7.305
		c2.248,0.697,16.982,2.322,16.982,2.322L31.596,50H40.629L40.629,50z"/>
</g>
</svg>
